X: 424
T:Margaret Ann Robertson
N: page 168
N: heptatonic
R: Waltz
M:3/4
L:1/4
K:A
((3B,/A,/G,/)|"A" A,2 E|C2 A,|"D"D3/2 F/ A|"E7"E3|"A"c3/2 B/ A/E/|"F#m"c2 A|"Bm"BGE|"E7"DCB,|
"A"A,2 E|C2 A,|"D" D3/2 F/ A|"E7"E3|"F#m"c3/2 B/ A/E/|"E7" c2 B|"D"A3|"A" A2:|
|:c/d/|"A"e2 A|a2 A|"D"g2 A|"E"fe c/d/|"A"e2 A|a2 A|"Bm"B/e3/2 "B"^d|"E"e2|
[1 c/d/|"A"e2 A|a2 A|"D"fga|"A"ecA|A,CE|Ace|"E7"dcB|"A"A2:|
[2((3B,/A,/G,/)|"A" A,2 E|C2 A,|"D"D3/2 F/ A|"E7"E3|"F#m"c3/2 B/ A/E/|"E7"c2B|"D"A3|"A"A2|]
